icons/evolvere-blue-folders-flat-vivid-dark-fallback/apps/64/zotero.svg

<?xml version="1.0" encoding="UTF-8" standalone="no"?>
<!-- Created with Inkscape (http://www.inkscape.org/) -->

<svg
   xmlns:dc="http://purl.org/dc/elements/1.1/"
   xmlns:cc="http://creativecommons.org/ns#"
   xmlns:rdf="http://www.w3.org/1999/02/22-rdf-syntax-ns#"
   xmlns:svg="http://www.w3.org/2000/svg"
   xmlns="http://www.w3.org/2000/svg"
   xmlns:xlink="http://www.w3.org/1999/xlink"
   xmlns:sodipodi="http://sodipodi.sourceforge.net/DTD/sodipodi-0.dtd"
   xmlns:inkscape="http://www.inkscape.org/namespaces/inkscape"
   width="64"
   height="64"
   id="svg13094"
   version="1.1"
   inkscape:version="0.48.4 r9939"
   sodipodi:docname="zotero.svg">
  <sodipodi:namedview
     id="base"
     pagecolor="#ffffff"
     bordercolor="#666666"
     borderopacity="1.0"
     inkscape:pageopacity="0"
     inkscape:pageshadow="2"
     inkscape:zoom="11.313709"
     inkscape:cx="29.821854"
     inkscape:cy="29.949587"
     inkscape:document-units="px"
     inkscape:current-layer="svg13094"
     showgrid="false"
     inkscape:snap-bbox="true"
     inkscape:bbox-paths="true"
     inkscape:bbox-nodes="true"
     inkscape:snap-bbox-edge-midpoints="true"
     inkscape:snap-bbox-midpoints="true"
     inkscape:object-paths="true"
     inkscape:snap-intersection-paths="true"
     inkscape:object-nodes="true"
     inkscape:snap-smooth-nodes="true"
     inkscape:snap-midpoints="true"
     inkscape:snap-object-midpoints="true"
     inkscape:snap-center="true"
     showguides="false"
     inkscape:guide-bbox="true"
     inkscape:window-width="1920"
     inkscape:window-height="1025"
     inkscape:window-x="-2"
     inkscape:window-y="32"
     inkscape:window-maximized="1"
     inkscape:snap-global="true"
     fit-margin-top="0"
     fit-margin-left="0"
     fit-margin-right="0"
     fit-margin-bottom="0"
     showborder="true"
     inkscape:showpageshadow="false"
     inkscape:snap-page="true">
    <inkscape:grid
       type="xygrid"
       id="grid3075"
       empspacing="5"
       visible="true"
       enabled="true"
       snapvisiblegridlinesonly="true"
       originx="1.6362304e-08px"
       originy="18px" />
    <sodipodi:guide
       orientation="0,1"
       position="-11,30"
       id="guide9148" />
    <sodipodi:guide
       orientation="1,0"
       position="32,70"
       id="guide9150" />
  </sodipodi:namedview>
  <defs
     id="defs13096">
    <linearGradient
       id="linearGradient3094">
      <stop
         offset="0"
         style="stop-color:#b7c1d2;stop-opacity:1;"
         id="stop3096" />
      <stop
         offset="1"
         style="stop-color:#8c98a8;stop-opacity:1;"
         id="stop3104" />
    </linearGradient>
    <radialGradient
       inkscape:collect="always"
       xlink:href="#linearGradient3094"
       id="radialGradient3886"
       cx="31.62359"
       cy="17.037395"
       fx="31.62359"
       fy="17.037395"
       r="32"
       gradientTransform="matrix(0,1.4266305,-1.3125,0,55.361582,-28.115178)"
       gradientUnits="userSpaceOnUse" />
  </defs>
  <metadata
     id="metadata13099">
    <rdf:RDF>
      <cc:Work
         rdf:about="">
        <dc:format>image/svg+xml</dc:format>
        <dc:type
           rdf:resource="http://purl.org/dc/dcmitype/StillImage" />
        <dc:title />
      </cc:Work>
    </rdf:RDF>
  </metadata>
  <path
     id="path6538"
     d="m 0,4 0,30 0,28 2,2 30,0 30,0 2,-2 L 64,34 64,4 32,4 0,4 z"
     style="color:#000000;fill:url(#radialGradient3886);fill-opacity:1;fill-rule:nonzero;stroke:none;stroke-width:2.28571415000000000;marker:none;visibility:visible;display:inline;overflow:visible;enable-background:accumulate"
     inkscape:connector-curvature="0" />
  <path
     style="color:#000000;fill:#d5dce8;fill-opacity:1;fill-rule:nonzero;stroke:none;marker:none;visibility:visible;display:inline;overflow:visible;enable-background:accumulate"
     d="M 2 0 L 0 1 L 0 4 L 19.5625 4 L 39.125 4 L 64 4 L 64 1 L 62 0 L 39.125 0 L 19.5625 0 L 2 0 z "
     id="path6688" />
  <g
     id="g3043"
     inkscape:export-filename="folder.png"
     inkscape:export-xdpi="90"
     inkscape:export-ydpi="90"
     transform="translate(-0.62500009,0.082283)" />
  <g
     id="scalable"
     transform="matrix(1.0385892,0,0,1.0385892,1214.7222,1878.8121)"
     inkscape:label="#g3701"
     style="fill:#ffffff" />
  <path
     inkscape:connector-curvature="0"
     id="path3068"
     d="M 32,34 1,63 1.6362304e-8,62 l 0,-58 L 32,4 z"
     style="color:#000000;fill:#949ead;fill-opacity:1;fill-rule:nonzero;stroke:none;stroke-width:1;marker:none;visibility:visible;display:inline;overflow:visible;enable-background:accumulate" />
  <path
     style="color:#000000;fill:#a1abbb;fill-opacity:1;fill-rule:nonzero;stroke:none;stroke-width:1;marker:none;visibility:visible;display:inline;overflow:visible;enable-background:accumulate"
     d="M 32,34 63,63 64,62 64,4 32,4 z"
     id="path3064"
     inkscape:connector-curvature="0" />
  <path
     style="color:#000000;fill:#86909e;fill-opacity:1;fill-rule:nonzero;stroke:none;stroke-width:1;marker:none;visibility:visible;display:inline;overflow:visible;enable-background:accumulate"
     d="M 32,34 63,63 62,64 2,64 1,63 z"
     id="path3066"
     inkscape:connector-curvature="0" />
  <path
     d="m 52.395347,56.999996 -26.790694,0 -7,-6 17.01344,-23.696303 -9.545588,0 -7,-6 L 44.927495,15 l 7,7 0,4.92476 -13.937655,20.030401 7.405507,-2.258858 7,7 0,5.303693"
     style="font-size:50.42954253999999992px;font-style:normal;font-variant:normal;font-weight:bold;font-stretch:normal;line-height:125%;letter-spacing:0px;word-spacing:0px;fill:#000000;fill-opacity:0.0698299;stroke:none;font-family:Open Sans;-inkscape-font-specification:Open Sans Bold"
     id="path3870"
     inkscape:connector-curvature="0"
     sodipodi:nodetypes="ccccccccccccc" />
  <path
     inkscape:connector-curvature="0"
     id="path3872"
     style="font-size:50.42954254px;font-style:normal;font-variant:normal;font-weight:bold;font-stretch:normal;line-height:125%;letter-spacing:0px;word-spacing:0px;fill:#da4829;fill-opacity:1;stroke:none;font-family:Open Sans;-inkscape-font-specification:Open Sans Bold"
     d="m 45.395347,50.999996 -26.790694,0 0,-4.949384 17.261284,-24.746919 -16.793432,0 0,-6.303693 25.85499,0 0,4.92476 -17.23666,24.771543 17.704512,0 0,6.303693" />
  <path
     style="color:#000000;fill:#c4ccd7;fill-opacity:1;fill-rule:nonzero;stroke:none;stroke-width:2;marker:none;visibility:visible;display:inline;overflow:visible;enable-background:accumulate"
     d="M 2 0 L 0 1 L 0 4 L 32 4 L 32 0 L 19.5625 0 L 2 0 z "
     id="rect3864" />
  <path
     d="M 64,6 62,4 64,3 z"
     id="path3028"
     style="fill:#b8c1cf;fill-opacity:1"
     inkscape:connector-curvature="0" />
  <path
     style="fill:#d5dbe3;fill-opacity:1;fill-rule:nonzero"
     d="M 0,3 0,6 2,4 z"
     id="path4298"
     inkscape:connector-curvature="0"
     sodipodi:nodetypes="cccc" />
</svg>

<svg xmlns="http://www.w3.org/2000/svg" viewBox="0 0 64 64"><defs><radialGradient id="0" cx="31.624" cy="17.04" r="32" gradientTransform="matrix(0 1.42663-1.3125 0 55.36-28.12)" gradientUnits="userSpaceOnUse"><stop stop-color="#b7c1d2"/><stop offset="1" stop-color="#8c98a8"/></radialGradient></defs><g color="#000"><path d="m0 4v30 28l2 2h30 30l2-2v-28-30h-32-32" fill="url(#0)"/><path d="m2 0l-2 1v3h19.563 19.563 24.875v-3l-2-1h-22.875-19.563-17.563" fill="#d5dce8"/><path d="m32 34l-31 29-1-1v-58h32z" fill="#949ead"/><path d="m32 34l31 29 1-1v-58h-32z" fill="#a1abbb"/><path d="m32 34l31 29-1 1h-60l-1-1z" fill="#86909e"/></g><path d="m52.4 57h-26.791l-7-6 17.01-23.696h-9.546l-7-6 25.855-6.304 7 7v4.925l-13.938 20.03 7.406-2.259 7 7v5.304" fill-opacity=".07"/><path d="m45.4 51h-26.791v-4.949l17.261-24.747h-16.793v-6.304h25.855v4.925l-17.237 24.772h17.705v6.304" fill="#da4829"/><path d="m2 0l-2 1v3h32v-4h-12.438-17.563" fill="#c4ccd7" color="#000"/><path d="m64 6l-2-2 2-1z" fill="#b8c1cf"/><path d="m0 3v3l2-2z" fill="#d5dbe3"/></svg>
